!!!!SEGMENT: pl-sa--105-a-iii-5--001_anonim--pastorella-1ma-in-hoc-natali-gaudio.krn
!!!cenid: 17xx:1365
!!!COM: Anonim
!!!COM-rismID: pe30004985
!!!CDT:
!!!CNT:
!!!OTL: Pastorella 1ma - In hoc natali gaudio
!!!PDT:
!!!AGN:
!!!SMS-siglum: PL-SA
!!!SMS-shelfmark: 105/A III 5
!!!SMS-shelfwork: 001 W
!!!SMS-variant:
!!!SMS-altvar:
!!!NIFC-rismSourceID: 1001041386
!!!NIFC-rismChildID: 1001041386
!!!NIFC-islandoraID: none
!!!URL-pdf-islandora:
!!!URL-scan: https://bc.bdsandomierz.pl/dlibra/publication/1461/edition/1429/content @EN{Scan in the Sandomierz Diocese Digital Library} @PL{Skany w portalu Cyfrowa Biblioteka Diecezjalna w Sandomierzu}
!!!IIIF:
!!!ONB-nifc: UWAGA: części: 1. Pastorella 1ma – In hoc natali gaudio, 2. Pastorella 1ma – Ave maris stella, 3. Pastorella Secunda – Colladeamus Christum regem
!!!AIN: 1 bass 1 empty 1 flt 2 violn
!!!key:
**kern	**fba	**kern	**dynam	**kern	**dynam	**kern	**text
*part4	*	*part3	*part3	*part2	*part2	*part1	*part1
*	*	*group1	*	*group1	*	*	*
*staff4	*	*staff3	*	*staff2	*	*staff1	*staff1
*Iempty	*	*Ivioln	*	*Iflt&Ivioln	*	*Ibass	*
*I"Fundamento.	*	*I"Flauto vel Violino Secundo.	*	*I"Flauto v Violino Primo .	*	*I"Basso Solo	*
*I'fund	*	*I'vl 2	*	*I'vl 1	*	*I'B	*
*clefF4	*	*clefG2	*	*clefG2	*	*clefF4	*
*k[b-]	*	*k[b-]	*	*k[b-]	*	*k[b-]	*
*F:	*	*F:	*	*F:	*	*F:	*
*M2/4	*	*M2/4	*	*M2/4	*	*M2/4	*
!	!	!	!	!	!	!LO:TX:a:t=P:problem=brak przedtaktu	!
!LO:TX:a:i:t=Allegrò.	!	!LO:TX:a:i:t=Allegrò&colon;	!	!LO:TX:a:i:t=Allegrò.	!	!LO:TX:a:i:t=Allegro.	!
!LO:TX:a:i:t=Pastorella ima	!	!LO:TX:a:i:t=Pastorella ima	!	!LO:TX:a:i:t=Pastorella ima.	!	!LO:TX:a:i:t=Pastorella ima	!
8r	.	8cc\	.	8cc\	.	8ryy	.
=1	=1	=1	=1	=1	=1	=1	=1
!	!	!	!	!	!	!LO:TX:a:t=30.	!
!	!	!	!	!	!	!LO:N:vis=00	!
4F\	3_	4a/	.	4ff\|	.	0r	.
4F\	X	4a/	.	4ff\|	.	.	.
=2	=2	=2	=2	=2	=2	=2	=2
4F\	.	16a/LL	.	16ff\LL	.	.	.
.	.	16b-/	.	16gg\	.	.	.
.	.	16cc/	.	16aa\	.	.	.
.	.	16b-/JJ	.	16gg\JJ	.	.	.
8r	.	8a/L	.	8ff\L	.	.	.
8A\	.	8a/J	.	8cc\J	.	.	.
=3	=3	=3	=3	=3	=3	=3	=3
8B-\L|	.	8b-/L	.	8b-/L	.	.	.
8A\|	.	8a/	.	8a/	.	.	.
8G\|	.	8g/	.	8g/	.	.	.
8c\J|	.	8cc/J	.	8cc/J	.	.	.
=4	=4	=4	=4	=4	=4	=4	=4
4F\	.	4f/	.	4f/	.	.	.
4r	.	8r	.	8r	.	.	.
.	.	8cc\	.	8cc\	.	.	.
=5	=5	=5	=5	=5	=5	=5	=5
!	!	!	!	!	!	!LO:N:vis=00	!
4F\	3	4a/	.	4ff\|	.	0r	.
4F\	.	4a/	.	4ff\|	.	.	.
=6	=6	=6	=6	=6	=6	=6	=6
4F\	.	16a/LL	.	(16ff\LL	.	.	.
.	.	16b-/	.	16gg\	.	.	.
.	.	16cc/	.	16aa\)	.	.	.
.	.	16b-/JJ	.	16gg\JJ	.	.	.
8r	.	8a/L	.	8ff\L	.	.	.
8c\|	.	8cc/J	.	8cc\J	.	.	.
=7	=7	=7	=7	=7	=7	=7	=7
8B-\L|	.	8b-/L	.	8b-/L	.	.	.
8A\|	.	8a/	.	8a/	.	.	.
8G\|	.	8g/	.	8g/	.	.	.
8F\J|	.	8f/J	.	8f/J	.	.	.
=8	=8	=8	=8	=8	=8	=8	=8
!	!	!LO:N:vis=8	!	!	!	!	!
4c\|	.	4cc\	.	4cc\	.	.	.
4r	.	8r	.	8r	.	.	.
.	.	8cc\	.	8cc\	.	.	.
=9	=9	=9	=9	=9	=9	=9	=9
!	!	!	!	!	!	!LO:N:vis=00	!
4C/	.	8.cc\L	.	8.ee\L	.	0r	.
.	.	16ee\K	.	16gg\K	.	.	.
4r	.	8.dd\	.	8.ff\	.	.	.
.	.	16ff\Jk	.	16aa\Jk	.	.	.
=10	=10	=10	=10	=10	=10	=10	=10
.	.	8qqff/	.	8qqaa/	.	.	.
8r	.	4.ee\	.	4.gg\	.	.	.
!LO:TX:t=P:problem=mixed beam	!	!	!	!	!	!	!
8C/L	.	.	.	.	.	.	.
8G\	6 4	.	.	.	.	.	.
*	*	*	*below	*	*	*	*
!	!	!	!LO:DY:t=p&colon;	!	!	!	!
8GG/J	5 n3	8dd\	p	8ff\	.	.	.
=11	=11	=11	=11	=11	=11	=11	=11
*	*	*	*	*	*below	*	*
4C/	.	8.cc\L	.	8.ee\L	p	.	.
.	.	16ee\K	.	16gg\K	.	.	.
4r	.	8.dd\	.	8.ff\	.	.	.
.	.	16ff\Jk	.	16aa\Jk	.	.	.
=12	=12	=12	=12	=12	=12	=12	=12
.	.	8qqff/	.	8qqaa/	.	.	.
8r	.	4.ee\	.	4.gg\	.	.	.
8C/	.	.	.	.	.	.	.
8E\L	6	.	.	.	.	.	.
8G\J	n	8dd\	.	8ff\	.	.	.
=13	=13	=13	=13	=13	=13	=13	=13
!	!	!	!LO:DY:rj	!	!	!LO:N:vis=00	!
4C/	.	8cc\L	f	8ee\L	f	0r	.
.	.	16ee\L	.	16gg\L	.	.	.
.	.	16dd\JJ	.	16ff\JJ	.	.	.
8r	.	8cc\L	.	8ee\L	.	.	.
8GG/	n	8bn\J	.	8dd\J	.	.	.
=14	=14	=14	=14	=14	=14	=14	=14
4C/	.	16cc\LL	.	16ee\LL	.	.	.
.	.	16ee\	.	16ccc\	.	.	.
.	.	16dd\	.	16bbn\	.	.	.
.	.	16ff\JJ	.	16aa\JJ	.	.	.
*	*	*	*	*custos:gg	*	*	*
!	!	!	!	!LO:LB:g=original	!	!	!
8r	.	8ee\L	.	8gg\L	.	.	.
8F\	.	8dd\J	.	8ff\J	.	.	.
*	*	*custos:cc	*	*	*	*	*
!	!	!LO:LB:g=original	!	!	!	!	!
=15	=15	=15	=15	=15	=15	=15	=15
4G\	6 4	4cc\	.	(32ee\LLL	.	.	.
.	.	.	.	32dd\JJ	.	.	.
.	.	.	.	8.cc\J)	.	.	.
4GG/	n	4bnt\	.	4ddT\	.	.	.
=16	=16	=16	=16	=16	=16	=16	=16
8C/L	3_	4cc\	.	4cc\	.	.	.
8GG/J	.	.	.	.	.	.	.
8CC/	.	8r	.	8r	.	.	.
8r	X	8cc\	.	8cc\	.	.	.
*custos:F	*	*	*	*	*	*	*
!LO:LB:g=original	!	!	!	!	!	!	!
=17	=17	=17	=17	=17	=17	=17	=17
!	!	!	!	!	!	!LO:N:vis=00	!
8r	.	(16a/LL	.	(16cc\LL	.	0r	.
.	.	16b-X/J	.	16dd\J)	.	.	.
8F\L	-7_	8cc/J)	.	8ee-X\J|	.	.	.
8A\	.	(8cc'\L	.	(8ee-'\L	.	.	.
8F\J	.	8cc'\J)	.	8ee-'\J)	.	.	.
=18	=18	=18	=18	=18	=18	=18	=18
!	!	!	!	!LO:SIC:v:s=8qqee-	!	!	!
.	.	8qqcc/	.	8qqee/	.	.	.
8B-\L	3_	4b-\	.	4dd\	.	.	.
8F\J	.	.	.	.	.	.	.
!LO:TX:t=P:problem=mixed beam	!	!	!	!	!	!	!
8BB-/L	.	8r	.	8r	.	.	.
8G\J	n	8bn\	.	8dd\	.	.	.
=19	=19	=19	=19	=19	=19	=19	=19
!LO:TX:t=P:problem=mixed beam	!	!LO:TUP:a:problem=klamra łukowa	!	!	!	!	!
8G\L	.	24bn\LL	.	(16dd\LL	.	.	.
.	.	24cc\	.	.	.	.	.
.	.	.	.	16een\J)	.	.	.
.	.	24dd\JJ	.	.	.	.	.
8GG/	.	(8dd'\L	.	8ff\J|	.	.	.
8BBn/	.	8dd'\	.	(8ff\L|	.	.	.
8GG/J	.	8dd'\J)	.	8ff\J)|	.	.	.
=20	=20	=20	=20	=20	=20	=20	=20
.	.	8qqdd/	.	8qqff/	.	.	.
8C/L	3_	4cc\	.	4ee\	.	.	.
8GG/J	.	.	.	.	.	.	.
8CC/L	.	8r	.	8r	.	.	.
8C/J	X	8ee\	.	8gg\	.	.	.
=21	=21	=21	=21	=21	=21	=21	=21
!	!	!	!	!	!	!LO:N:vis=00	!
4F\	.	16ff\LL	.	(16aa\LL	.	0r	.
.	.	16gg\	.	16bb-\	.	.	.
.	.	16aa\	.	16ccc\)	.	.	.
.	.	16gg\JJ	.	16bb-\JJ	.	.	.
8r	.	8ff\L	.	8aa\L	.	.	.
8F\	.	8aa\J	.	8ccc\J	.	.	.
=22	=22	=22	=22	=22	=22	=22	=22
4c\	7	8gg\	.	8bb-\	.	.	.
.	.	4ee\	.	4gg\	.	.	.
4C/	.	.	.	.	.	.	.
.	.	16ff\LL	.	16aa\LL	.	.	.
.	.	16gg\JJ	.	16bb-\JJ	.	.	.
=23	=23	=23	=23	=23	=23	=23	=23
!	!	!LO:TX:t=P:problem=takty 24-25 zapisane repetycją, adnotacja "bis"	!	!	!	!	!
4F\	.	16ff\LLyy	.	16aa\LL	p	.	.
.	.	16gg\yy	.	16bb-\	.	.	.
.	.	16aa\yy	.	16ccc\	.	.	.
.	.	16gg\JJyy	.	16bb-\JJ	.	.	.
8r	.	8ff\Lyy	.	8aa\L	.	.	.
8F\	.	8aa\Jyy	.	8ccc\J	.	.	.
=24	=24	=24	=24	=24	=24	=24	=24
4c\	.	8gg\yy	.	8bb-\	.	.	.
.	.	4ee\yy	.	4gg\	.	.	.
4C/	.	.	.	.	.	.	.
.	.	16ff\LLyy	.	16aa\LL	.	.	.
.	.	16gg\JJyy	.	16bb-\JJ	.	.	.
=25	=25	=25	=25	=25	=25	=25	=25
!	!	!	!	!	!	!LO:N:vis=00	!
8F\L	6	4ff\	.	(32aa\LLL	f	0r	.
.	.	.	.	32gg\JJ)	.	.	.
.	.	.	.	8.ff\J	.	.	.
8A\	5	.	.	.	.	.	.
8B-\	.	4eet\	.	4gg\	.	.	.
8c\J	3	.	.	.	.	.	.
=26	=26	=26	=26	=26	=26	=26	=26
!	!	!	!LO:DY:rj	!	!	!	!
4F\	.	8ff\L	f	8ff\L	.	.	.
.	.	8cc\J	.	8cc\J	.	.	.
4F\	.	4ff\	.	4aa\	.	.	.
*	*	*	*	*custos:ff	*	*	*
!	!	!	!	!LO:LB:g=original	!	!	!
=27	=27	=27	=27	=27	=27	=27	=27
4F\	.	8ff\L	.	8ff\L	.	.	.
.	.	8cc\J	.	8cc\J	.	.	.
4F\	.	4aa\	.	4ccc\	.	.	.
=28	=28	=28	=28	=28	=28	=28	=28
!LO:TX:t=P:problem=takty 29-30 zapisane repetycją, adnotacja "bis"	!	!	!	!	!	!	!
4F\yy	.	(8ff\L	.	(8ff\L	.	.	.
.	.	8cc\)	.	8cc\)	.	.	.
4F\yy	.	(8ff\	.	(8aa\	.	.	.
.	.	8cc\J)	.	8cc\J)	.	.	.
=29	=29	=29	=29	=29	=29	=29	=29
!	!	!	!	!	!	!LO:N:vis=0	!
4F\yy	.	(8ff\L	.	(8ff\L	.	1r	.
.	.	8cc\)	.	8cc\)	.	.	.
4F\yy	.	(8aa\	.	(8ccc\	.	.	.
.	.	8cc\J)	.	8cc\J)	.	.	.
=30	=30	=30	=30	=30	=30	=30	=30
4BB-/	.	8b-\L	.	8dd\L	.	.	.
.	.	8dd\J	.	8bb-\J	.	.	.
4C/	.	16cc\LL	.	16aa\LL	.	.	.
.	.	16b-\	.	16gg\	.	.	.
.	.	16a\	.	16ff\	.	.	.
.	.	16g\JJ	.	16ee\JJ	.	.	.
=31	=31	=31	=31	=31	=31	=31	=31
.	.	4qqg/	.	8qqee/	.	.	.
8F\L	.	4a/	.	4ff\	.	4r	.
8C\J	.	.	.	.	.	.	.
8FF/	.	8r	.	8r	.	8r	.
!LO:TX:a:i:t=finis	!	!	!LO:DY:t=pia	!	!	!	!
8r;;	.	8cc\	p	8cc\	p	8C/	In
*	*	*custos:a	*	*	*	*	*
!	!	!LO:LB:g=original	!	!	!	!	!
=32	=32	=32	=32	=32	=32	=32	=32
4F\	.	4a/	.	4ff\	.	4F\	hoc
4F\	.	4a/	.	4ff\	.	4F\	na-
=33	=33	=33	=33	=33	=33	=33	=33
4F\	.	(16a/LL	.	(16ff\LL	.	8F\L	-ta-
.	.	16b-/	.	16gg\	.	.	.
.	.	16cc/)	.	16aa\)	.	16A\L	.
.	.	16b-/JJ	.	16gg\JJ	.	16G\JJ	.
8r	.	8a/L	.	8ff\L	.	8F\	.
8AA/	.	8a/J	.	8cc\J	.	8AA/	-li
=34	=34	=34	=34	=34	=34	=34	=34
8BB-/L	.	8b-/L	.	8b-/L	.	8BB-/L	gau-
8AA/	.	8a/	.	8a/	.	8AA/J	.
8GG/	.	8g/	.	8g/	.	8GG/	.
8C/J	.	8cc/J	.	8cc/J	.	8C/	-di-
=35	=35	=35	=35	=35	=35	=35	=35
4FF/	.	4f/	.	4f/	.	4FF/	-o
8ryy	.	8r	.	8r	.	8r	.
8AA/	.	8cc\	.	8cc\	.	8C/	Be-
=36	=36	=36	=36	=36	=36	=36	=36
4F\	.	4a/	.	4ff\	.	4F\	-ne-
4F\	.	4a/	.	4ff\	.	4F\	-di-
*custos:F	*	*	*	*	*	*	*
!LO:LB:g=original	!	!	!	!	!	!	!
=37	=37	=37	=37	=37	=37	=37	=37
4F\	.	16a/LL	.	(16ff\LL	.	8F\L	-ca-
.	.	(16b-/	.	16gg\	.	.	.
.	.	16cc/	.	16aa\)	.	16A\L	.
.	.	16b-/JJ)	.	16gg\JJ	.	16G\JJ	.
8r	.	8a/L	.	8ff\L	.	8F\	.
8c\|	.	8cc/J	.	8cc\J	.	8C/	-mus
=38	=38	=38	=38	=38	=38	=38	=38
8B-\L|	.	8b-/L	.	8b-/L	.	8BB-/L	Do-
8A\|	.	8a/	.	8a/	.	8AA/J	.
8G\|	.	8g/	.	8g/	.	8GG/	.
8F\J|	.	8f/J	.	8f/J	.	8FF/	-mi-
=39	=39	=39	=39	=39	=39	=39	=39
4C/	.	4cc\	.	4cc\	.	4C/	-no
4r	.	8r	.	8r	.	8r	.
.	.	8cc\	.	8cc\	.	8C/	Lau-
=40	=40	=40	=40	=40	=40	=40	=40
8C/L	x x 3_	4cc\	.	4ee\	.	4E\	-de-
8C/	.	.	.	.	.	.	.
8C/	n3 4 2	4ddT\	.	4ffT\	.	4F\	-tur
8C/J	.	.	.	.	.	.	.
*	*	*	*	*	*	*custos:G	*
!	!	!	!	!	!	!LO:LB:g=original	!
=41	=41	=41	=41	=41	=41	=41	=41
4C/	x x 8	4ee\	.	(8gg\L	.	4G\	San-
.	.	.	.	8ccc\J)	.	.	.
8r	.	8dd\L	.	(8bbn\L	.	4G\	-cta
8F\	.	8ff\J	.	8aa\J)	.	.	.
*	*	*	*	*custos:gg	*	*	*
!	!	!	!	!LO:LB:g=original	!	!	!
=42	=42	=42	=42	=42	=42	=42	=42
4G\	8 6 4	8ee\L	.	(8gg\L	.	8G\L	Tri-
.	x 5 x	8dd\	.	8ff\)	.	8F\J	.
4GG/	6 4	8cc\	.	(8ee\	.	8E\L	-ni-
.	5 n	8bn\J	.	8dd\J)	.	8D\J	.
=43	=43	=43	=43	=43	=43	=43	=43
!	!	!LO:SIC:v:s=8qqbn	!	!	!	!	!
.	.	8qqb-/	.	8qqdd/	.	8qqD/	.
8C/L	.	4cc\	.	4ee\	.	4E\	-tas
8GG/J	.	.	.	.	.	.	.
8CC/	.	8r	.	8r	.	8r	.
8r	.	8g/	.	8cc\	.	8C/	De-
=44	=44	=44	=44	=44	=44	=44	=44
8r	.	4cc\	.	4ee\	.	4E\	-o
8C/L	x 3	.	.	.	.	.	.
8C/	n7 2	4ddT\	.	4ffT\	.	4F\	di-
8C/J	.	.	.	.	.	.	.
=45	=45	=45	=45	=45	=45	=45	=45
4C/	8	8ee\L	.	8gg\L	.	4G\	-ca-
.	.	8aa\	.	8ccc\	.	.	.
8r	.	8gg\	.	8bbn\	.	4G\	-mus
8F\	3	8ff\J	.	8aa\J	.	.	.
=46	=46	=46	=46	=46	=46	=46	=46
4G\	8 6	8ee\L	.	8gg\L	.	8G\L	gra-
.	7 5	8dd\	.	8ff\	.	8F\J	.
4GG/	6 4	8cc\	.	8ee\	.	8E\L	-ti-
.	5 n3	8bn\J	.	8dd\J	.	8D\J	.
=47	=47	=47	=47	=47	=47	=47	=47
!	!	!LO:SIC:v:s=8bn	!	!	!	!	!
.	.	8qqb-/	.	8qqdd/	.	8qqD/	.
8C/L	.	4cc\	.	4ee\	.	4E\	-as
8C/	.	.	.	.	.	.	.
8E/	.	8r	.	8r	.	8r	.
8C/J	.	8g/	.	8cc\	.	8C/	De-
=48	=48	=48	=48	=48	=48	=48	=48
!LO:TX:t=P:problem=mixed beam	!	!	!	!	!	!	!
8F\L	.	8a/L	.	8cc\L	.	8.F\L	.
8FF/	.	8a/	.	8cc\	.	.	.
.	.	.	.	.	.	16G\Jk	.
8FF/	.	8a/	.	8cc\	.	8A\	-o
8FF/J	.	8a/J	.	8cc\J	.	8F\	di-
=49	=49	=49	=49	=49	=49	=49	=49
*	*	*	*	*2\right	*	*	*
*tremolo	*	*tremolo	*	*tremolo	*	*	*
!	!	!	!	!LO:TX:t=P:problem=linia falista	!	!	!
8FF/L	6	8a/L	.	8dd\L	.	16D\LL	-ca-
.	.	.	.	.	.	16E\JJ	.
8FF/	.	8a/	.	8dd\	.	4F\	.
8FF/	.	8a/	.	8dd\	.	.	.
8FF/J	.	8a/J	.	8dd\J	.	8D\	.
=50	=50	=50	=50	=50	=50	=50	=50
!	!	!	!	!LO:TX:t=P:problem=linia falista	!	!	!
8GG/L	n3	8bn/L	.	8dd\L	.	8.G\L	.
8GG/	.	8bn/	.	8dd\	.	.	.
.	.	.	.	.	.	16A\Jk	.
8GG/	.	8bn/	.	8dd\	.	8Bn\L	.
8GG/J	.	8bn/J	.	8dd\J	.	8G\J	.
*	*	*Xtremolo	*	*	*	*	*
*	*	*custos:b	*	*	*	*	*
!	!	!LO:LB:g=original	!	!	!	!	!
=51	=51	=51	=51	=51	=51	=51	=51
!	!	!	!	!LO:TX:t=P:problem=linia falista	!	!	!
8GG/L	6 n3	8bn/L	.	8ee\L	.	16E\LL	.
.	.	.	.	.	.	16F\JJ	.
8GG/	.	8b/	.	8ee\	.	4G\	.
8GG/	.	8b/	.	8ee\	.	.	.
8GG/J	.	8b/J	.	8ee\J	.	8E\	-mus
*Xtremolo	*	*	*	*Xtremolo	*	*	*
=52	=52	=52	=52	=52	=52	=52	=52
*	*	*	*	*^	*	*	*
*	*	*	*	*	*	*	*2\right	*
!	!	!	!	!LO:TX:b:i:t=w.	!	!	!	!
!LO:TX:t=P:problem=mixed beam	!	!	!	!LO:TX:a:i:t=fl&colon;	!	!	!	!
8AA/L	.	4cc\	.	4ee\	4ryy	.	2A\	gra-
16A\L	.	.	.	.	.	.	.	.
16Bn\JJ	.	.	.	.	.	.	.	.
8c\L|	.	8cc\L	.	8ccc/L	8cc\L	.	.	.
!	!	!LO:TX:a:i:t=flauto.	!	!	!	!	!	!
8Bn\J|	.	8bn\J	.	8bbn/J	8bn\J	.	.	.
=53	=53	=53	=53	=53	=53	=53	=53	=53
*	*	*^	*	*	*	*	*	*
!	!	!LO:TX:b:i:t=Violino	!	!	!	!	!	!	!
8A\L|	.	8ryy	8a/L	.	8aa/L	8a\L	.	8A\L	.
8G\|	.	8gg/L	8g/	.	8gg/	8g\	.	8G\	.
8F\|	.	8ff/	8f/	.	8ff/	8f\	.	8F\	.
8E\J|	.	8ee/J	8e/J	.	8ee/J	8e\J	.	8E\J	.
*	*	*	*	*	*	*	*	*custos:D	*
!	!	!	!	!	!	!	!	!LO:LB:g=original	!
=54	=54	=54	=54	=54	=54	=54	=54	=54	=54
8D/L|	.	8dd/L	8d/L	.	8dd/L	8d/L	.	8D/L	.
8C/J|	.	8cc/	8c/	.	8cc/	8c/	.	8C/	.
*custos:BBn	*	*	*	*	*	*	*	*	*
!LO:LB:g=original	!	!	!	!	!	!	!	!	!
8BBn/L	.	8bn/	8Bn/	.	8bn/	8Bn/	.	8BBn/	.
8AA/J	.	8a/J	8A/J	.	8a/J	8A/J	.	8AA/J	-ti-
*	*	*v	*v	*	*	*	*	*	*
*	*	*	*	*v	*v	*	*	*
=55	=55	=55	=55	=55	=55	=55	=55
4GG/	.	4g 4G/	.	4g 4G/	.	4GG/	-as
8r	.	8r	.	8r	.	8r	.
8GG/	.	8g 8G/	.	8g 8G/	.	8GG/	Lau-
=56	=56	=56	=56	=56	=56	=56	=56
4C/	.	4cc 4c/	.	4cc 4c/	.	4C/	-de-
4C/	.	4cc 4c/	.	4cc 4c/	.	4C/	-tur
=57	=57	=57	=57	=57	=57	=57	=57
*	*	*^	*	*^	*	*	*
16C/LL|	.	16cc/LL	16c/LL	.	16cc/LL	16c/LL	.	(16C/LL	San-
16D/|	.	16dd/	16d/	.	16dd/	16d/	.	16D/)	.
16E/|	.	16ee/	16e/	.	16ee/	16e/	.	(16E/	.
16F/JJ|	.	16ff/JJ	16f/JJ	.	16ff/JJ	16f/JJ	.	16F/JJ)	.
8G\L|	.	8gg/L	8g/L	.	8gg/L	8g/L	.	8G\	.
8F\J|	.	8ff/J	8f/J	.	8ff/J	8f/J	.	8F\	-cta
*	*	*	*	*	*custos:ee	*	*	*	*
!	!	!	!	!	!LO:LB:g=original	!	!	!	!
=58	=58	=58	=58	=58	=58	=58	=58	=58	=58
8E\L	.	8ee/L	8e/L	.	8ee/L	8e/L	.	8.E\	Tri-
8D\	.	8dd/	8d/	.	8dd/	8d/	.	.	.
.	.	.	.	.	.	.	.	16D\	-ni-
8C\	.	8cc/	8c/	.	8cc/	8c/	.	8C/	-tas
8BBn\J	.	8bn/J	8Bn/J	.	8bn/J	8Bn/J	.	8BBn/	De-
=59	=59	=59	=59	=59	=59	=59	=59	=59	=59
8C/L|	.	8cc/L	8c/L	.	8cc/L	8c/L	.	8C/	-o
8GG/J|	.	8g/	8G/J	.	8g/	8G/	.	8GG/	di-
8G\L|	.	8gg/	8g/L	.	8gg/	8g/	.	8G\	-ca-
8F\J|	.	8ff/J	8f/J	.	8ff/J	8f/J	.	8F\	-mus
=60	=60	=60	=60	=60	=60	=60	=60	=60	=60
*	*	*^	*	*	*	*	*	*	*
!	!	!	!	!	!	!	!LO:TX:t=P:problem=mixed beam	!	!	!
8E\L|	.	8ee/L	8e\L	8e/L	.	8ee/L	8e/L	.	8E\L	gra-
8D\|	.	8dd/	8d\	8d/	.	8dd/	8d/	.	8D\J	.
!	!	!	!	!	!	!	!	!	!LO:TX:t=P:problem=mixed beam	!
8C\|	.	8cc/	8c\	8c/J	.	8cc/	8c/	.	8C/L	.
8A\J|	.	8aa/J	8a\J	8a\	.	8aa/J	8a\J	.	8A\J	.
*	*	*v	*v	*	*	*	*	*	*	*
=61	=61	=61	=61	=61	=61	=61	=61	=61	=61
4F\|	.	4ff/	4f/	.	4ffT/	4f/	.	(4FT\	.
4G\|	.	4gg/	4g/	.	4gg/	4g/	.	8.G\)	.
.	.	.	.	.	.	.	.	16GG/	-ti-
*	*	*v	*v	*	*v	*v	*	*	*
=62	=62	=62	=62	=62	=62	=62	=62
8C/L	.	4cc/ 4c/	.	4cc/ 4c/	.	4C/	-as.
8GG/J	.	.	.	.	.	.	.
8CC/	.	8r	.	8r	.	4r	.
!	!	!	!	!	!LO:DY:t=for&colon;	!	!
8r	.	8cc\	f	8cc\	f	.	.
=63	=63	=63	=63	=63	=63	=63	=63
!	!	!	!	!	!	!LO:TX:a:t=14.	!
!	!	!	!	!	!	!LO:N:vis=00	!
4C/	.	8.cc\L	.	8.ee\L	.	0r	.
.	.	16ee\K	.	16gg\K	.	.	.
4C/	.	8.dd\	.	8.ff\	.	.	.
.	.	16ff\Jk	.	16aa\Jk	.	.	.
=64	=64	=64	=64	=64	=64	=64	=64
.	.	8qqff/	.	8qqaa/	.	.	.
8C/L	.	4.ee\	.	4.gg\	.	.	.
8C/J	.	.	.	.	.	.	.
!LO:TX:t=P:problem=mixed beam	!	!	!	!	!	!	!
8G\L	6 4	.	.	.	.	.	.
!	!	!	!LO:DY:t=p&colon;	!	!	!	!
8GG/J	x n	8dd\	p	8ff\	.	.	.
=65	=65	=65	=65	=65	=65	=65	=65
4C/	.	8.cc\L	.	8.ee\L	p	.	.
.	.	16ee\K	.	16gg\K	.	.	.
4C/	.	8.dd\	.	8.ff\	.	.	.
.	.	16ff\Jk	.	16aa\Jk	.	.	.
*	*	*custos:ee	*	*	*	*	*
!	!	!LO:LB:g=original	!	!	!	!	!
=66	=66	=66	=66	=66	=66	=66	=66
.	.	8qqff/	.	8qqaa/	.	.	.
8C/L	.	4.ee\	.	4.gg\	.	.	.
8C/J	.	.	.	.	.	.	.
!LO:TX:t=P:problem=mixed beam	!	!	!	!	!	!	!
8G\L	6 4	.	.	.	.	.	.
8GG/J	x n	8dd\	.	8ff\	.	.	.
=67	=67	=67	=67	=67	=67	=67	=67
!	!	!	!	!	!	!LO:N:vis=00	!
4C/	.	16cc\LL	f	(16ee\LL	f	0r	.
.	.	16dd\	.	16ff\)	.	.	.
.	.	16ee\	.	(16gg\	.	.	.
.	.	16dd\JJ	.	16ff\JJ)	.	.	.
8r	.	8cc\L	.	8ee\L	.	.	.
8c\	.	8ee\J	.	8gg\J	.	.	.
=68	=68	=68	=68	=68	=68	=68	=68
4F\	6	8dd\	.	8ff\	.	.	.
!	!	!LO:TX:b:i:t=Rep&colon;pia.	!	!	!	!	!
.	6 4	4bn\	.	4dd\	.	.	.
4G\	5 n	.	.	.	.	.	.
.	.	16cc\LL	.	16ee\LL	.	.	.
.	.	16dd\JJ	.	16ff\JJ	.	.	.
=69	=69	=69	=69	=69	=69	=69	=69
!	!	!LO:TX:t=P:bis:problem=takty 70-71 zapisane repetycją, adnotacja 	!	!	!	!	!
4C/	.	16cc\LLyy	f	(16ee\LL	p	.	.
.	.	16dd\yy	.	16ff\)	.	.	.
.	.	16ee\yy	.	(16gg\	.	.	.
.	.	16dd\JJyy	.	16ff\JJ)	.	.	.
8r	.	8cc\Lyy	.	8ee\L	.	.	.
8c\	.	8ee\Jyy	.	8gg\J	.	.	.
=70	=70	=70	=70	=70	=70	=70	=70
4F\	6	8dd\yy	.	8ff\	.	.	.
!	!	!LO:TX:b:i:t=Rep&colon;pia	!	!	!	!	!
.	.	4bn\yy	.	4dd\	.	.	.
4G\	n	.	.	.	.	.	.
.	.	16cc\LLyy	.	16ee\LL	.	.	.
.	.	16dd\JJyy	.	16ff\JJ	.	.	.
=71	=71	=71	=71	=71	=71	=71	=71
!	!	!	!	!	!	!LO:N:vis=00	!
8C\L	.	4cc\	.	(32ee\LLL	.	0r	.
.	.	.	.	32dd\JJ)	.	.	.
.	.	.	.	8.cc\J	.	.	.
8E\J	6	.	.	.	.	.	.
8F\L	6 5	4bn\	.	4ddT\	.	.	.
8G\J	.	.	.	.	.	.	.
!LO:LB:g=original	!	!	!	!	!	!	!
=72	=72	=72	=72	=72	=72	=72	=72
4C/	.	8cc\L	f	8cc\L	f	.	.
.	.	8g\J	.	8g\J	.	.	.
4C/	.	4cc\	.	4ee\	.	.	.
*	*	*	*	*custos:cc	*	*	*
!	!	!	!	!LO:LB:g=original	!	!	!
=73	=73	=73	=73	=73	=73	=73	=73
4C/	.	8cc\L	.	8cc\L	.	.	.
.	.	8g\J	.	8g\J	.	.	.
4C/	.	4ee\	.	4gg\	.	.	.
=74	=74	=74	=74	=74	=74	=74	=74
4C/	.	(8cc\L	.	(8cc\L	.	.	.
.	.	8g\)	.	8g\)	.	.	.
4C/	.	(8cc\	.	(8ee\	.	.	.
.	.	8g\J)	.	8g\J)	.	.	.
=75	=75	=75	=75	=75	=75	=75	=75
!	!	!	!	!	!	!LO:N:vis=0	!
4C/	.	(8cc\L	.	(8cc\L	.	1r	.
.	.	8g\)	.	8g\)	.	.	.
4C/	.	(8ee\	.	(8gg\	.	.	.
.	.	8g\J)	.	8g\J)	.	.	.
=76	=76	=76	=76	=76	=76	=76	=76
*	*	*^	*	*	*	*	*
4F\|	.	8ryy	8f/L	.	8a\L	.	.	.
.	.	8aa/	8a/J	.	8ff\J	.	.	.
4G\|	.	16gg/LL	16g/LL	.	16ee\LL	.	.	.
.	.	16ff/	16f/	.	16dd\	.	.	.
.	.	16ee/	16e/	.	16cc\	.	.	.
.	.	16dd/JJ	16d/JJ	.	16bn\JJ	.	.	.
=77	=77	=77	=77	=77	=77	=77	=77	=77
!	!	!	!	!	!LO:SIC:v:s=8qqbn	!	!	!
.	.	8qqdd/	8qqd/	.	8qqb-/	.	.	.
8C/L	3_	4ee/	4e/	.	4cc\	.	4r	.
8GG/J	.	.	.	.	.	.	.	.
8CC/	.	8r	4ryy	.	8r	.	8r	.
8r	X	8g/	.	.	8g/	p	8GG/	In
*	*	*v	*v	*	*	*	*	*
*	*	*	*	*	*	*custos:CC	*
!	!	!	!	!	!	!LO:LB:g=original	!
=78	=78	=78	=78	=78	=78	=78	=78
!	!	!	!LO:DY:t=p&colon;	!	!	!	!
4C/	.	4cc\	p	4cc\	.	4C/	hoc
4C/	.	4cc\	.	4cc\	.	4C/	na-
=79	=79	=79	=79	=79	=79	=79	=79
*	*	*^	*	*^	*	*	*
4C/	.	16cc\LL	4ryy	.	(16cc\LL	4ryy	.	8C/L	-ta-
.	.	16dd\	.	.	16dd\	.	.	.	.
.	.	16ee\	.	.	16ee\)	.	.	16E/L	.
.	.	16dd\JJ	.	.	16dd\JJ	.	.	16D/JJ	.
!	!	!LO:TX:t=P:problem=mixed bram	!	!	!LO:TX:t=P:problem=mixed beam	!	!	!	!
8r	.	8ryy	8cc\L	.	8ryy	8cc\L	.	8C/	.
8E\|	.	8ee/	8e/J	.	8ee/	8e/J	.	8E\	-li
=80	=80	=80	=80	=80	=80	=80	=80	=80	=80
8F\L|	.	8ff/L	8f/L	.	8ff/L	8f/L	.	8F\L	gau-
8E\|	.	8ee/	8e/	.	8ee/	8e/	.	8E\J	.
8D\|	.	8dd/	8d/	.	8dd/	8d/	.	8D\	.
8G\J|	.	8gg/J	8g/J	.	8gg/J	8g/J	.	8G\	-di-
*	*	*	*	*	*v	*v	*	*	*
=81	=81	=81	=81	=81	=81	=81	=81	=81
4C/	.	4cc/	4c/	.	4cc 4c/	.	4C/	-o
16c\LL	.	8r	4ryy	.	8r	.	8r	.
16B-X\	.	.	.	.	.	.	.	.
16A\	.	8cc\	.	.	8cc\	.	8C/	Be-
16G\JJ	.	.	.	.	.	.	.	.
*	*	*v	*v	*	*	*	*	*
=82	=82	=82	=82	=82	=82	=82	=82
4F\	.	4a/	.	4ff\	.	4F\	-ne-
4F\	.	4a/	.	4ff\	.	4F\	-di-
*	*	*custos:a	*	*	*	*	*
!	!	!LO:LB:g=original	!	!	!	!	!
=83	=83	=83	=83	=83	=83	=83	=83
4F\	.	(16a/LL	.	(16ff\LL	.	8F\L	-ca-
.	.	16b-X/	.	16gg\	.	.	.
.	.	16cc/)	.	16aa\	.	16A\L	.
.	.	16b-/JJ	.	16gg\JJ)	.	16G\JJ	.
8r	.	8a/L	.	8ff\L	.	8F\	.
8C/	.	8cc/J	.	8cc\J	.	8C/	-mus
=84	=84	=84	=84	=84	=84	=84	=84
8BB-/L|	.	8b-/L	.	8b-/L	.	8BB-/L	Do-
8AA/|	.	8a/	.	8a/	.	8AA/J	.
8GG/|	.	8g/	.	8g/	.	8GG/	.
8FF/J|	.	8f/J	.	8f/J	.	8FF/	-mi-
=85	=85	=85	=85	=85	=85	=85	=85
8C/L	.	4cc\	.	4cc\	.	4C/	-no
8C/	3	.	.	.	.	.	.
8AA/	6	8r	.	8r	.	8r	.
8FF/J	.	8cc\	.	8ff\	.	8C/	Lau-
=86	=86	=86	=86	=86	=86	=86	=86
8BB-/L	.	8dd\L	.	8ff\L	.	8D\	-de-
8BB-/	.	8dd\	.	8ff\	.	4F\	.
8BB-/	.	8dd\	.	8ff\	.	.	.
8BB-/J	.	8dd\J	.	8ff\J	.	[8B-\	.
=87	=87	=87	=87	=87	=87	=87	=87
*	*	*2\right	*	*	*	*	*
*tremolo	*	*tremolo	*	*tremolo	*	*	*
!	!	!	!	!LO:TX:t=P:problem=linia falista	!	!	!
8BB-/L	3	8dd\L	.	8ff\L	.	8B-\]	.
8BB-/	.	8dd\	.	8ff\	.	4BB-/	.
8BB-/	.	8dd\	.	8ff\	.	.	.
8BB-/J	.	8dd\J	.	8ff\J	.	8BB-/	-tur
=88	=88	=88	=88	=88	=88	=88	=88
!	!	!	!	!LO:TX:t=P:problem=linia falista	!	!	!
8AA/L	6	8cc\L	.	8ff\L	.	8AA/	San-
8AA/	.	8cc\	.	8ff\	.	4F\	.
8AA/	.	8cc\	.	8ff\	.	.	.
8AA/J	.	8cc\J	.	8ff\J	.	[8A\	.
=89	=89	=89	=89	=89	=89	=89	=89
!	!	!	!	!LO:TX:t=P:problem=linia falista	!	!	!
8AA/L	.	8cc\L	.	8ff\L	.	8A\]	.
8AA/	.	8cc\	.	8ff\	.	4AA/	.
8AA/	.	8cc\	.	8ff\	.	.	.
8AA/J	.	8cc\J	.	8ff\J	.	8AA/	-cta
*	*	*	*	*	*	*custos:GG	*
!	!	!	!	!	!	!LO:LB:g=original	!
=90	=90	=90	=90	=90	=90	=90	=90
!	!	!	!	!LO:TX:t=P:problem=linia falista	!	!	!
8GG/L	7	8b-/L	.	8ee\L	.	8GG/	San-
8GG/	.	8b-/	.	8ee\	.	4E\	.
8GG/	.	8b-/	.	8ee\	.	.	.
8GG/J	.	8b-/J	.	8ee\J	.	[8G\	-cta
*	*	*Xtremolo	*	*Xtremolo	*	*	*
=91	=91	=91	=91	=91	=91	=91	=91
8C/L	7	8b-\L	.	8ee\L	.	8G\]	.
8C/	.	8b-\	.	8ee\	.	4GG/	Tri-
8C/	.	8ee\	.	8gg\	.	.	.
8C/J	.	8ee\J	.	8bb-\J	.	8GG/	-ni-
*Xtremolo	*	*	*	*	*	*	*
*custos:FF	*	*	*	*custos:aa	*	*	*
!LO:LB:g=original	!	!	!	!LO:LB:g=original	!	!	!
=92	=92	=92	=92	=92	=92	=92	=92
4FF/	.	8.ff\L	.	8.aa\L	.	4AA/	-tas
.	.	16aa\K	.	16ccc\K	.	.	.
4r	.	8.gg\	.	8.bb-\	.	4r	.
.	.	16bb-\Jk	.	16ddd\Jk	.	.	.
=93	=93	=93	=93	=93	=93	=93	=93
.	.	8qqbb-/	.	8qqddd/	.	.	.
8r	.	4.aa\	.	4.ccc\	.	8r	.
!LO:TX:t=P:problem=mixed beam	!	!	!	!	!	!	!
8F\L	.	.	.	.	.	8F\	Lau-
8c\	.	.	.	.	.	4C/	-de-
8C/J	.	8gg\	.	8bb-\	.	.	.
=94	=94	=94	=94	=94	=94	=94	=94
4F\	.	8.ff\L	.	8.aa\L	.	4FF/	-tur
.	.	16aa\K	.	16ccc\K	.	.	.
4r	.	8.gg\	.	8.bb-\	.	4r	.
.	.	16bb-\Jk	.	16ddd\Jk	.	.	.
=95	=95	=95	=95	=95	=95	=95	=95
.	.	8qqbb-/	.	8qqddd/	.	.	.
8r	.	4.aa\	.	4.ccc\	.	8r	.
!LO:TX:t=P:problem=mixed beam	!	!	!	!	!	!	!
8F\	.	.	.	.	.	8F\	Lau-
8c\L	.	.	.	.	.	4C/	-de-
8C/J	.	8gg\	.	8bb-\	.	.	.
=96	=96	=96	=96	=96	=96	=96	=96
8F\L	.	8ff\L	.	8aa\L	.	8FF/	-tur
8F\	.	8ff\	.	8ff\	.	8F\	De-
8F\	.	8ff\	.	8ff\	.	8F\	-o
8F\J	.	8ff\J	.	8ff\J	.	8F\	di-
=97	=97	=97	=97	=97	=97	=97	=97
8.FT\L	.	8ff\L	.	8ff\L	.	8F\L	-ca-
.	.	16ee\L	.	16ee\L	.	16E\L	.
(32E\LL	.	16dd\JJ	.	16dd\JJ	.	16D\JJ	.
32D\JJJ)	.	.	.	.	.	.	.
8C/L	.	8cc\L	.	8cc\L	.	8C/	.
8AA/J	.	8a\J	.	8a\J	.	8AA/	-mus
=98	=98	=98	=98	=98	=98	=98	=98
4BB-/|	.	4b-\|	.	4b-\|	.	(4BB-/	gra-
4C/|	.	4cc\|	.	4cc\|	.	8.C/)	.
.	.	.	.	.	.	16C/	-ti-
=99	=99	=99	=99	=99	=99	=99	=99
8F\L	.	4f/	.	4f/	.	4FF/	-as
8C\J	.	.	.	.	.	.	.
8FF/	.	8r	.	8r	.	4r	.
8r	.	8a/	.	8cc\	.	.	.
=100	=100	=100	=100	=100	=100	=100	=100
!LO:TX:t=P:problem=mixed beam	!	!	!	!	!	!LO:TX:a:t=1.	!
8FF/L	.	(16a\LL	.	(16cc\LL	.	2r	.
.	.	16b-\J	.	16dd\J)	.	.	.
8F\	-7	8cc'\J)	.	8ee-X\J|	.	.	.
8A\	.	(8cc'\L	.	8ee-'\L	.	.	.
8F\J	.	8cc'\J)	.	8ee-'\J	.	.	.
*	*	*custos:b	*	*	*	*	*
!	!	!LO:LB:g=original	!	!	!	!	!
=101	=101	=101	=101	=101	=101	=101	=101
!	!	!	!	!LO:SIC:v:s=8qqeen	!	!	!
.	.	8qqcc/	.	8qqee/	.	.	.
8B-\L	.	4b-\	.	4dd\	.	8r	.
8F\	.	.	.	.	.	8BB-/	Lau-
8D\	.	8r	.	8r	.	8D/	-de-
8BB-\J	.	8dd'\	.	8dd\	.	8BB-/	-tur
*	*	*	*	*	*	*custos:C	*
!	!	!	!	!	!	!LO:LB:g=original	!
=102	=102	=102	=102	=102	=102	=102	=102
!LO:TX:t=P:problem=mixed beam	!	!	!	!	!	!LO:TX:a:t=1.	!
8GG/L	.	(16bn\LL	.	(16dd\LL	.	2r	.
.	.	16cc\J	.	16een\J)	.	.	.
8G\	n	8dd'\J)	.	8ff\J|	.	.	.
8Bn\	.	(8dd'\L	.	(8ff'\L	.	.	.
8G\J	.	8dd'\J)	.	8ff'\J)	.	.	.
=103	=103	=103	=103	=103	=103	=103	=103
.	.	8qqdd/	.	8qqff/	.	.	.
8c\L	.	4cc\	.	4ee\	.	8r	.
8G\	.	.	.	.	.	8C/	Lau-
8E\	.	8r	.	8r	.	8E/	-de-
8C\J	.	8ee\	.	8gg\	.	8C/	-tur
*custos:F	*	*	*	*	*	*	*
!LO:LB:g=original	!	!	!	!	!	!	!
=104	=104	=104	=104	=104	=104	=104	=104
4F\	.	16ff\LL	.	16aa\LL	.	4F\	San-
.	.	16gg\	.	16bb-\	.	.	.
.	.	16aa\	.	16ccc\	.	.	.
.	.	16gg\JJ	.	16bb-\JJ	.	.	.
4FF/	.	8ff\L	.	8aa\L	.	8A\L	-cta
.	.	8aa\J	.	8ccc\J	.	8F\J	.
=105	=105	=105	=105	=105	=105	=105	=105
4C/	.	8gg\	.	8bb-\	.	8.c 8.C\	Tri-
.	.	4ee\	.	4gg\	.	.	.
.	.	.	.	.	.	16C/	-ni-
4CC/	.	.	.	.	.	4C/	-tas
.	.	16ff\LL	.	16aa\LL	.	.	.
.	.	16gg\JJ	.	16bb-\JJ	.	.	.
=106	=106	=106	=106	=106	=106	=106	=106
!	!	!LO:TX:t=P:problem=takty 106-107 zapisane repetycją, adnotacja "bis"	!	!	!	!	!
4F\	.	16ff\LLyy	.	16aa\LL	.	4r	.
.	.	16gg\yy	.	16bb-\	.	.	.
.	.	16aa\yy	.	16ccc\	.	.	.
.	.	16gg\JJyy	.	16bb-\JJ	.	.	.
*	*	*	*	*custos:aa	*	*	*
!	!	!	!	!LO:LB:g=original	!	!	!
4FF/	.	8ff\Lyy	.	8aa\L	.	8A\	San-
.	.	8aa\Jyy	.	8ccc\J	.	8F\	-cta
=107	=107	=107	=107	=107	=107	=107	=107
4C/	7	8gg\yy	.	8bb-\	.	4c\	San-
.	.	4ee\yy	.	4gg\	.	.	.
4CC/	.	.	.	.	.	4C/	-cta
.	.	16ff\LLyy	.	16aa\LL	.	.	.
.	.	16gg\JJyy	.	16bb-\JJ	.	.	.
=108	=108	=108	=108	=108	=108	=108	=108
!LO:TX:t=P:problem=mixed beam	!	!	!	!	!	!	!
8F\L	.	4ff\	.	(32aa\LLL	.	(4F\	Tri-
.	.	.	.	32gg\JJ	.	.	.
.	.	.	.	8.ff\J)	.	.	.
8FF/	.	.	.	.	.	.	.
8C/	.	4eet\	.	4ggT\	.	8.C/)	.
8CC/J	.	.	.	.	.	.	.
.	.	.	.	.	.	16C/	-ni-
=109	=109	=109	=109	=109	=109	=109	=109
!LO:TX:t=P:problem=mixed beam	!	!	!	!	!	!	!
8FF/L	.	8ff\L	.	8ff\L	.	8FF/	-tas
8F\	.	8cc\J	.	8cc\J	.	8A\	De-
8FF/	.	4ff\	.	4aa\	.	8F\	-o
8F\J	.	.	.	.	.	8C/	di-
=110	=110	=110	=110	=110	=110	=110	=110
!LO:TX:t=P:problem=mixed beam	!	!	!	!	!	!	!
8FF/L	.	8ff\L	.	8ff\L	.	4F\	-ca-
8F\	.	8cc\J	.	8cc\J	.	.	.
8FF/	.	4aa\	.	4ccc\	.	4F\	-mus
8F\J	.	.	.	.	.	.	.
=111	=111	=111	=111	=111	=111	=111	=111
!LO:TX:t=P:problem=mixed beam	!	!	!	!	!	!	!
8FF/L	.	(8ff\L	.	8ff\L	.	8r	.
8F\	.	8cc\)	.	8cc\	.	8A\	De-
8FF/	.	(8ff\	.	8aa\	.	8F\	-o
8F\J	.	8cc\J)	.	8cc\J	.	8C/	di-
=112	=112	=112	=112	=112	=112	=112	=112
!LO:TX:t=P:problem=mixed beam	!	!	!	!	!	!	!
8FF/L	.	(8ff\L	.	8ff\L	.	4F\	-ca-
8F\	.	8cc\)	.	8cc\	.	.	.
8AA/	6	(8aa\	.	8ccc\	.	4AA/	-mus
8A\J	.	8cc\J)	.	8cc\J	.	.	.
=113	=113	=113	=113	=113	=113	=113	=113
!LO:TX:t=P:problem=mixed beam	!	!	!	!	!	!	!
8BB-/L	.	8b-\L	.	8dd\L	.	(4BB-/	gra-
8B-\	.	8dd\J	.	8bb-\J	.	.	.
8C/	.	16cc\LL	.	(16aa\LL	.	8.C/)	.
.	.	16b-\	.	16gg\	.	.	.
8c\J	.	16a\	.	16ff\	.	.	.
.	.	16g\JJ	.	16ee\JJ)	.	16C/	-ti-
*	*	*	*	*	*	*custos:FF	*
!	!	!	!	!	!	!LO:LB:g=original	!
=114	=114	=114	=114	=114	=114	=114	=114
!LO:TX:t=P:problem=mixed beam	!	!	!	!LO:TX:t=P:problem=takty 115-118 zapisane repetycją	!	!	!
.	.	8qqg/	.	.	.	.	.
8FF/L	.	4a/	.	8ff\Lyy	.	8FF/	-as
8F\	.	.	.	8cc\Jyy	.	8A\	De-
8FF/	.	4ff\	.	4aa\yy	.	8F\	-o
8F\J	.	.	.	.	.	8C/	di-
=115	=115	=115	=115	=115	=115	=115	=115
!LO:TX:t=P:problem=mixed beam	!	!	!	!	!	!	!
8FF/L	.	8ff\L	.	8ff\Lyy	.	4F\	-ca-
8F\	.	8cc\J	.	8cc\Jyy	.	.	.
8FF/	.	4aa\	.	4ccc\yy	.	4F\	-mus
8F\J	.	.	.	.	.	.	.
=116	=116	=116	=116	=116	=116	=116	=116
!LO:TX:t=P:problem=mixed beam	!	!	!	!	!	!	!
8FF/L	.	(8ff\L	.	8ff\Lyy	.	8r	.
8F\	.	8cc\)	.	8cc\yy	.	8A\	De-
8FF/	.	(8ff\	.	8aa\yy	.	8F\	-o
8F\J	.	8cc\J)	.	8cc\Jyy	.	8C/	di-
*custos:FF	*	*	*	*	*	*	*
!LO:LB:g=original	!	!	!	!	!	!	!
=117	=117	=117	=117	=117	=117	=117	=117
!LO:TX:t=P:problem=mixed beam	!	!	!	!	!	!	!
8FF/L	.	(8ff\L	.	8ff\Lyy	.	4F\	-ca-
8F\	.	8cc\)	.	8cc\yy	.	.	.
8AA/	6	(8aa\	.	8ccc\yy	.	4AA/	-mus
8A\J	.	8cc\J)	.	8cc\Jyy	.	.	.
*	*	*custos:b	*	*	*	*	*
!	!	!LO:LB:g=original	!	!	!	!	!
=118	=118	=118	=118	=118	=118	=118	=118
!LO:TX:t=P:problem=mixed beam	!	!	!	!	!	!	!
8BB-\L	.	8b-\L	.	8dd\Lyy	.	(4BB-/	gra-
8B-\	.	8dd\J	.	8bb-\Jyy	.	.	.
8C\	.	16cc\LL	.	(16aa\LLyy	.	8.CT/)	.
.	.	16b-\	.	16gg\yy	.	.	.
8c\J	.	16a\	.	16ff\yy	.	.	.
.	.	16g\JJ	.	16ee\JJ)yy	.	16C/	-ti-
=119	=119	=119	=119	=119	=119	=119	=119
.	.	8qqg/	.	8qqee/	.	.	.
8F\L	.	4a/	.	4ff\	.	4FF/	-as.
8C\J	.	.	.	.	.	.	.
8FF/	.	8r	.	8r	.	4r	.
!LO:TX:t=P:problem=brak kreski taktowej	!	!	!	!	!	!	!
!LO:TX:b:i:t=Da Capo ad Signum finis [+2 fermaty]	!	!	!	!	!	!	!
8ryy	.	8cc\	.	8cc\	f	.	.
=120	=120	=120	=120	=120	=120	=120	=120
!	!	!	!	!	!	!LO:TX:a:t=24.	!
!	!	!	!	!	!	!LO:N:vis=00	!
4F\yy	3_	4a/	.	4ff\	.	0r	.
4F\yy	X	4a/	.	4ff\	.	.	.
=121	=121	=121	=121	=121	=121	=121	=121
4F\yy	.	16a/LL	f	(16ff\LL	.	.	.
.	.	16b-/	.	16gg\	.	.	.
.	.	16cc/	.	16aa\	.	.	.
.	.	16b-/JJ	.	16gg\JJ)	.	.	.
8ryy	.	8a/L	.	8ff\L	.	.	.
8A\yy	.	8a/J	.	8cc\J	.	.	.
=122	=122	=122	=122	=122	=122	=122	=122
8B-\Lyy|	.	8b-/L	.	8b-/L	.	.	.
8A\yy|	.	8a/	.	8a/	.	.	.
8G\yy|	.	8g/	.	8g/	.	.	.
8c\Jyy|	.	8cc/J	.	8cc/J	.	.	.
=123	=123	=123	=123	=123	=123	=123	=123
4F\yy	.	4f/	.	4f/	.	.	.
4ryy	.	8r	.	8r	.	.	.
.	.	8cc\	.	8cc\	.	.	.
=124	=124	=124	=124	=124	=124	=124	=124
!	!	!	!	!LO:TX:t=P:problem=brak taktu	!	!	!
!	!	!	!	!	!	!LO:N:vis=00	!
4F\yy	3	4a/	.	2ryy	.	0r	.
4F\yy	.	4a/	.	.	.	.	.
=125	=125	=125	=125	=125	=125	=125	=125
4F\yy	.	16a/LL	.	(16ff\LL	.	.	.
.	.	16b-/	.	16gg\	.	.	.
.	.	16cc/	.	16aa\)	.	.	.
.	.	16b-/JJ	.	16gg\JJ	.	.	.
8ryy	.	8a/L	.	8ff\L	.	.	.
8c\yy|	.	8cc/J	.	8cc\J	.	.	.
=126	=126	=126	=126	=126	=126	=126	=126
8B-\Lyy|	.	8b-/L	.	8b-/L	.	.	.
8A\yy|	.	8a/	.	8a/	.	.	.
8G\yy|	.	8g/	.	8g/	.	.	.
8F\Jyy|	.	8f/J	.	8f/J	.	.	.
=127	=127	=127	=127	=127	=127	=127	=127
!	!	!LO:N:vis=8	!	!	!	!	!
4c\yy|	.	4cc\	.	4cc\	.	.	.
4ryy	.	8r	.	8r	.	.	.
.	.	8cc\	.	8cc\	.	.	.
*	*	*	*	*custos:ee	*	*	*
!	!	!	!	!LO:LB:g=original	!	!	!
=128	=128	=128	=128	=128	=128	=128	=128
!	!	!	!LO:DY:t=for	!	!	!LO:N:vis=00	!
4C/yy	.	8.cc\L	f	8.ee\L	.	0r	.
.	.	16ee\K	.	16gg\K	.	.	.
4ryy	.	8.dd\	.	8.ff\	.	.	.
.	.	16ff\Jk	.	16aa\Jk	.	.	.
=129	=129	=129	=129	=129	=129	=129	=129
!	!	!LO:TX:b:i:t=Rep&colon; p&colon;	!	!	!	!	!
.	.	8qqff/	.	8qqaa/	.	.	.
8ryy	.	4.ee\	.	4.gg\	.	.	.
!LO:TX:t=P:problem=mixed beam	!	!	!	!	!	!	!
8C/yy	.	.	.	.	.	.	.
8G\Lyy	6 4	.	.	.	.	.	.
8GG/Jyy	5 n3	8dd\	.	8ff\	.	.	.
=130	=130	=130	=130	=130	=130	=130	=130
!	!	!LO:TX:t=P:problem=takty 131-132 zapisane repetycją, adnotacja "bis"	!LO:DY:t=for	!	!LO:DY:rj:t=p&colon;	!	!
4C/yy	.	8.cc\Lyy	f	8.ee\L	p	.	.
.	.	16ee\Kyy	.	16gg\K	.	.	.
4ryy	.	8.dd\yy	.	8.ff\	.	.	.
.	.	16ff\Jkyy	.	16aa\Jk	.	.	.
=131	=131	=131	=131	=131	=131	=131	=131
!	!	!LO:TX:b:i:t=Rep&colon; p&colon;	!	!	!	!	!
.	.	8qqff/yy	.	8qqaa/	.	.	.
8ryy	.	4.ee\yy	.	4.gg\	.	.	.
8C/yy	.	.	.	.	.	.	.
8E\Lyy	6	.	.	.	.	.	.
8G\Jyy	n	8dd\yy	.	8ff\	.	.	.
=132	=132	=132	=132	=132	=132	=132	=132
!	!	!	!	!	!	!LO:N:vis=00	!
4C/yy	.	8cc\L	.	8ee\L	f	0r	.
.	.	16ee\L	.	16gg\L	.	.	.
.	.	16dd\JJ	.	16ff\JJ	.	.	.
8ryy	.	8cc\L	.	8ee\L	.	.	.
8GG/yy	n	8bn\J	.	8dd\J	.	.	.
=133	=133	=133	=133	=133	=133	=133	=133
4C/yy	.	16cc\LL	.	(16ee\LL	.	.	.
.	.	16ee\	.	16ccc\)	.	.	.
.	.	16dd\	.	16bbn\	.	.	.
.	.	16ff\JJ	.	16aa\JJ	.	.	.
8ryy	.	8ee\L	.	8gg\L	.	.	.
8F\yy	.	8dd\J	.	8ff\J	.	.	.
=134	=134	=134	=134	=134	=134	=134	=134
4G\yy	6 4	4cc\	.	(32ee\LLL	.	.	.
.	.	.	.	32dd\JJ)	.	.	.
.	.	.	.	8.cc\J	.	.	.
4GG/yy	x n	4bnt\	.	4ddT\	.	.	.
=135	=135	=135	=135	=135	=135	=135	=135
8C/Lyy	3_	4cc\	.	4cc\	.	.	.
8GG/Jyy	.	.	.	.	.	.	.
8CC/yy	.	8r	.	8r	.	.	.
8ryy	X	8cc\	.	8cc\	.	.	.
*custos:F	*	*custos:a	*	*	*	*	*
!LO:LB:g=original	!	!LO:LB:g=original	!	!	!	!	!
=136	=136	=136	=136	=136	=136	=136	=136
!	!	!	!	!	!	!LO:N:vis=00	!
8ryy	.	(16a\LL	.	(16cc\LL	.	0r	.
.	.	16b-X\J)	.	16dd\J)	.	.	.
8F\yy	-7_	8cc\J|	.	8ee-X\J|	.	.	.
8A\Lyy	.	(8cc'\L	.	(8ee-'\L	.	.	.
8F\Jyy	.	8cc'\J)	.	8ee-'\J)	.	.	.
=137	=137	=137	=137	=137	=137	=137	=137
!	!	!	!	!LO:SIC:v:s=8qqee-	!	!	!
.	.	8qqcc/	.	8qqee/	.	.	.
8B-\Lyy	3_	4b-\	.	4dd\	.	.	.
8F\yy	.	.	.	.	.	.	.
!LO:TX:t=P:problem=mixed beam	!	!	!	!	!	!	!
8BB-/yy	.	8r	.	8r	.	.	.
8G\Jyy	n	8dd\	.	8dd\	.	.	.
=138	=138	=138	=138	=138	=138	=138	=138
!LO:TX:t=P:problem=mixed beam	!	!	!	!	!	!	!
8G\Lyy	.	(16bn\LL	.	(16dd\LL	.	.	.
.	.	16cc\J)	.	16een\J)	.	.	.
8GG/yy	.	8dd\J|	.	8ff'\J	.	.	.
8BBn/yy	.	8dd'\L	.	(8ff'\L	.	.	.
8GG/Jyy	.	8dd'\J	.	8ff'\J)	.	.	.
=139	=139	=139	=139	=139	=139	=139	=139
.	.	8qqdd/	.	8qqff/	.	.	.
8C/Lyy	3_	4cc\	.	4ee\	.	.	.
8GG/Jyy	.	.	.	.	.	.	.
8CC/Lyy	.	8r	.	8r	.	.	.
8C/Jyy	X	8ee\	.	8gg\	.	.	.
=140	=140	=140	=140	=140	=140	=140	=140
!	!	!	!	!	!	!LO:N:vis=00	!
4F\yy	.	(16ff\LL	f	16aa\LL	.	0r	.
.	.	16gg\	.	16bb-\	.	.	.
.	.	16aa\)	.	16ccc\	.	.	.
.	.	16gg\JJ	.	16bb-\JJ	.	.	.
8ryy	.	8ff\L	.	8aa\L	.	.	.
8F\yy	.	8aa\J	.	8ccc\J	.	.	.
*	*	*	*	*custos:bb-	*	*	*
!	!	!	!	!LO:LB:g=original	!	!	!
=141	=141	=141	=141	=141	=141	=141	=141
4c\yy	7	8gg\	.	8bb-\	.	.	.
!	!	!LO:TX:b:i:t=Rep&colon; pia.	!	!	!	!	!
.	.	8qqff/	.	.	.	.	.
.	.	4ee\	.	4gg\	.	.	.
4C/yy	.	.	.	.	.	.	.
.	.	16ff\LL	.	16aa\LL	.	.	.
.	.	16gg\JJ	.	16bb-\JJ	.	.	.
=142	=142	=142	=142	=142	=142	=142	=142
!	!	!LO:TX:t=P:problem=takty 143-144 zapisane repetycją, adnotacja "bis"	!	!	!	!	!
4F\yy	.	(16ff\LLyy	f	16aa\LL	p	.	.
.	.	16gg\yy	.	16bb-\	.	.	.
.	.	16aa\)yy	.	16ccc\	.	.	.
.	.	16gg\JJyy	.	16bb-\JJ	.	.	.
8ryy	.	8ff\Lyy	.	8aa\L	.	.	.
8F\yy	.	8aa\Jyy	.	8ccc\J	.	.	.
=143	=143	=143	=143	=143	=143	=143	=143
4c\yy	.	8gg\yy	.	8bb-\	.	.	.
!	!	!LO:TX:b:i:t=Rep&colon; pia.	!	!	!	!	!
.	.	8qqff/yy	.	.	.	.	.
.	.	4ee\yy	.	4gg\	.	.	.
4C/yy	.	.	.	.	.	.	.
.	.	16ff\LLyy	.	16aa\LL	.	.	.
.	.	16gg\JJyy	.	16bb-\JJ	.	.	.
=144	=144	=144	=144	=144	=144	=144	=144
!	!	!	!	!	!	!LO:TX:t=P:problem=brak 7 taktów	!
8F\Lyy	6	4ff\	.	(32aa\LLL	.	2ryy	.
.	.	.	.	32gg\JJ	.	.	.
.	.	.	.	8.ff\J)	.	.	.
8A\yy	5	.	.	.	.	.	.
8B-\yy	.	4eet\	.	4ggT\	.	.	.
8c\Jyy	3	.	.	.	.	.	.
=145	=145	=145	=145	=145	=145	=145	=145
!	!	!	!LO:DY:t=for	!	!	!	!
4F\yy	.	8ff\L	f	8ff\L	.	2ryy	.
.	.	8cc\J	.	8cc\J	.	.	.
4F\yy	.	4ff\	.	4aa\	.	.	.
=146	=146	=146	=146	=146	=146	=146	=146
4F\yy	.	8ff\L	.	8ff\L	.	2ryy	.
.	.	8cc\J	.	8cc\J	.	.	.
4F\yy	.	4aa\	.	4ccc\	.	.	.
=147	=147	=147	=147	=147	=147	=147	=147
!LO:TX:t=P:problem=takty 147-148 zapisane repetycją, adnotacja "bis"	!	!	!	!	!	!	!
4F\yy	.	(8ff\L	.	(8ff\L	.	2ryy	.
.	.	8cc\)	.	8cc\)	.	.	.
4F\yy	.	(8ff\	.	(8aa\	.	.	.
.	.	8cc\J)	.	8cc\J)	.	.	.
=148	=148	=148	=148	=148	=148	=148	=148
4F\yy	.	(8ff\L	.	(8ff\L	.	2ryy	.
.	.	8cc\)	.	8cc\)	.	.	.
4F\yy	.	(8aa\	.	(8ccc\	.	.	.
.	.	8cc\J)	.	8cc\J)	.	.	.
=149	=149	=149	=149	=149	=149	=149	=149
4BB-/yy	.	8b-\L	.	8dd\L	.	2ryy	.
.	.	8dd\J	.	8bb-\J	.	.	.
4C/yy	.	16cc/LL	.	16aa\LL	.	.	.
.	.	16b-/	.	16gg\	.	.	.
.	.	16a/	.	16ff\	.	.	.
.	.	16g/JJ	.	16ee\JJ	.	.	.
=150	=150	=150	=150	=150	=150	=150	=150
.	.	8qqg/	.	8qqee/	.	.	.
8F\Lyy	.	4a/	.	4ff\	.	2ryy	.
8C\Jyy	.	.	.	.	.	.	.
8FF/yy	.	8r	.	8r	.	.	.
!LO:TX:b:t=finis	!	!	!	!	!	!	!
8r;;yy	.	8ryy	.	8ryy	.	.	.
==	==	==	==	==	==	==	==
*-	*-	*-	*-	*-	*-	*-	*-
!!!system-decoration: s1[g1]s4
!!!RDF**dynam: p = "pia."
!!!RDF**dynam: f = "for."
!!!RDF**kern: | = vertical stroke
!!!ENC: Marta Lawrence
!!!END: 2021-01-09
!!!ENC: Andrzej Borzym
!!!END: 2020-11-25
!!!YEC: Copyright 2022 Narodowy Instytut Fryderyka Chopina (https://polishscores.org)
!!!YEM: License CC-BY-4.0 (https://creativecommons.org/licenses/by/4.0)
